X:16
T:Cymro oble, or... Tho24CDs1792.16
T:Welch Question. Tho24CDs1792.16, The
M:6/8
L:1/8
Q:3/8=120
C:"88"
B:Thompson 24 CDs 1792
Z:Village Music Project, Chris Partington, 1999 & 2017
W:First Lady change places with the 2nd Gent .|1st change places with the
W:2nd Lady :| lead down the middle,up again & cast off :|. Right and Left :|
K:F
|:d|c3 AcA|F2AB2d|c3 AcA|G2AB2d|
c3 AcA|F2A cde|fed cBA|G2AB2d||
faf cAc|faf cAc|faf cBA|G2AB2d|
faf gbg|agf edc|fed cBA|G2AB2d|]
%abc
%%abc-alias none
%%abc-creator ABCexplorer 1.6.1 [21/03/2017]

